packages/kaspersky-hexa-ui-icons/src/iconsSVGs/32/Number.svg

<svg xmlns="http://www.w3.org/2000/svg" width="32" height="32" fill="none" viewBox="0 0 32 32"><path fill="#000" fill-rule="evenodd" d="M2 12c0-.5523.4477-1 1-1h1c1.1046 0 2 .8954 2 2v7c0 .5523-.4477 1-1 1s-1-.4477-1-1v-7H3c-.5523 0-1-.4477-1-1m9 0c0-.5523.4477-1 1-1h4c1.1046 0 2 .8954 2 2v2c0 1.1046-.8954 2-2 2h-3v2h4c.5523 0 1 .4477 1 1s-.4477 1-1 1h-4c-1.1046 0-2-.8954-2-2v-2c0-1.1046.8954-2 2-2h3v-2h-4c-.5523 0-1-.4477-1-1m12 0c0-.5523.4477-1 1-1h4c1.1046 0 2 .8954 2 2v6c0 1.1046-.8954 2-2 2h-4c-.5523 0-1-.4477-1-1s.4477-1 1-1h4v-2h-2c-.5523 0-1-.4477-1-1s.4477-1 1-1h2v-2h-4c-.5523 0-1-.4477-1-1"/></svg>

<svg width="32" height="32" viewBox="0 0 32 32" fill="none" xmlns="http://www.w3.org/2000/svg">
<path fill-rule="evenodd" clip-rule="evenodd" d="M2 12C2 11.4477 2.44772 11 3 11H4C5.10457 11 6 11.8954 6 13V20C6 20.5523 5.55228 21 5 21C4.44772 21 4 20.5523 4 20V13H3C2.44772 13 2 12.5523 2 12ZM11 12C11 11.4477 11.4477 11 12 11H16C17.1046 11 18 11.8954 18 13V15C18 16.1046 17.1046 17 16 17H13V19H17C17.5523 19 18 19.4477 18 20C18 20.5523 17.5523 21 17 21H13C11.8954 21 11 20.1046 11 19V17C11 15.8954 11.8954 15 13 15H16V13H12C11.4477 13 11 12.5523 11 12ZM23 12C23 11.4477 23.4477 11 24 11H28C29.1046 11 30 11.8954 30 13V19C30 20.1046 29.1046 21 28 21H24C23.4477 21 23 20.5523 23 20C23 19.4477 23.4477 19 24 19H28V17H26C25.4477 17 25 16.5523 25 16C25 15.4477 25.4477 15 26 15H28V13H24C23.4477 13 23 12.5523 23 12Z" fill="black"/>
</svg>
